X: 6
M:4/4
L:1/8
Q:140
K:G
(3DEF|G2 GG GBdB|c2 A2 A2 c2|BGBd gdBG|d2 de dcBA|
(3def|g2 ga bgdB|c2 A2 A2 fg|a2 ab agfe|dgfe dcBA|

